Numix/64/emotes/face-crying.svg

<?xml version="1.0" encoding="UTF-8" standalone="no"?>
<svg
   xmlns:dc="http://purl.org/dc/elements/1.1/"
   xmlns:cc="http://creativecommons.org/ns#"
   xmlns:rdf="http://www.w3.org/1999/02/22-rdf-syntax-ns#"
   xmlns:svg="http://www.w3.org/2000/svg"
   xmlns="http://www.w3.org/2000/svg"
   xmlns:sodipodi="http://sodipodi.sourceforge.net/DTD/sodipodi-0.dtd"
   xmlns:inkscape="http://www.inkscape.org/namespaces/inkscape"
   width="64px"
   height="64px"
   viewBox="0 0 48 48"
   version="1.1"
   id="svg291"
   inkscape:version="0.91 r"
   sodipodi:docname="face-crying.svg">
  <metadata
     id="metadata308">
    <rdf:RDF>
      <cc:Work
         rdf:about="">
        <dc:format>image/svg+xml</dc:format>
        <dc:type
           rdf:resource="http://purl.org/dc/dcmitype/StillImage" />
      </cc:Work>
    </rdf:RDF>
  </metadata>
  <defs
     id="defs306" />
  <sodipodi:namedview
     pagecolor="#ffffff"
     bordercolor="#666666"
     borderopacity="1"
     objecttolerance="10"
     gridtolerance="10"
     guidetolerance="10"
     inkscape:pageopacity="0"
     inkscape:pageshadow="2"
     inkscape:window-width="640"
     inkscape:window-height="480"
     id="namedview304" />
  <g
     id="surface1">
    <path
       style=" stroke:none;fill-rule:nonzero;fill:rgb(100%,85.490196%,36.862745%);fill-opacity:1;"
       d="M 42 24 C 42 32.5625 33.941406 39.5 24 39.5 C 14.058594 39.5 6 32.5625 6 24 C 6 15.441406 14.058594 8.5 24 8.5 C 33.941406 8.5 42 15.441406 42 24 Z M 42 24 "
       id="path294" />
    <path
       style=" stroke:none;fill-rule:nonzero;fill:rgb(39.607843%,39.607843%,39.607843%);fill-opacity:1;"
       d="M 17.097656 33 C 17.667969 30.113281 20.585938 28 24 28 C 27.414062 28.003906 30.324219 30.117188 30.894531 33 L 29.933594 33 C 29.507812 31.28125 26.980469 30.003906 24 30 C 21.019531 30.003906 18.492188 31.28125 18.066406 33 Z M 17.097656 33 "
       id="path296" />
    <path
       style=" stroke:none;fill-rule:nonzero;fill:rgb(39.607843%,39.607843%,39.607843%);fill-opacity:1;"
       d="M 19.753906 18.71875 L 15.582031 21.125 C 15.867188 22.230469 16.863281 23 18 23 C 19.378906 23 20.5 21.878906 20.5 20.5 C 20.5 19.832031 20.230469 19.191406 19.753906 18.71875 Z M 19.753906 18.71875 "
       id="path298" />
    <path
       style=" stroke:none;fill-rule:nonzero;fill:rgb(39.607843%,39.607843%,39.607843%);fill-opacity:1;"
       d="M 28.246094 18.71875 C 27.769531 19.191406 27.5 19.832031 27.5 20.5 C 27.5 21.878906 28.621094 23 30 23 C 31.136719 23 32.128906 22.226562 32.417969 21.125 Z M 28.246094 18.71875 "
       id="path300" />
    <path
       style=" stroke:none;fill-rule:nonzero;fill:rgb(52.941176%,71.372549%,94.509804%);fill-opacity:1;"
       d="M 33 27.5 C 33 28.328125 32.328125 29 31.5 29 C 30.671875 29 30 28.328125 30 27.5 C 30 26.671875 31.5 24 31.5 24 C 31.5 24 33 26.671875 33 27.5 Z M 33 27.5 "
       id="path302" />
  </g>
</svg>

<svg xmlns="http://www.w3.org/2000/svg" width="64" height="64" viewBox="0 0 48 48">
 <g>
  <path d="m 42 24 c 0 8.563 -8.06 15.5 -18 15.5 c -9.941 0 -18 -6.938 -18 -15.5 c 0 -8.559 8.06 -15.5 18 -15.5 c 9.941 0 18 6.941 18 15.5 m 0 0" style="fill:#ffd95d;fill-opacity:1;stroke:none;fill-rule:nonzero"/>
  <path d="m 17.1 33 c 0.57 -2.887 3.488 -5 6.902 -5 c 3.414 0.004 6.324 2.117 6.895 5 l -0.961 0 c -0.426 -1.719 -2.953 -2.996 -5.934 -3 c -2.98 0.004 -5.508 1.281 -5.934 3 m -0.969 0" style="fill:#646464;fill-opacity:1;stroke:none;fill-rule:nonzero"/>
  <path d="m 19.754 18.719 l -4.172 2.406 c 0.285 1.105 1.281 1.875 2.418 1.875 c 1.379 0 2.5 -1.121 2.5 -2.5 c 0 -0.668 -0.27 -1.309 -0.746 -1.781 m 0 0" style="fill:#646464;fill-opacity:1;stroke:none;fill-rule:nonzero"/>
  <path d="m 28.25 18.719 c -0.477 0.473 -0.746 1.113 -0.746 1.781 c 0 1.379 1.121 2.5 2.5 2.5 c 1.137 0 2.129 -0.773 2.418 -1.875 m -4.172 -2.406" style="fill:#646464;fill-opacity:1;stroke:none;fill-rule:nonzero"/>
  <path d="m 33 27.5 c 0 0.828 -0.672 1.5 -1.5 1.5 c -0.828 0 -1.5 -0.672 -1.5 -1.5 c 0 -0.828 1.5 -3.5 1.5 -3.5 c 0 0 1.5 2.672 1.5 3.5 m 0 0" style="fill:#86b5f1;fill-opacity:1;stroke:none;fill-rule:nonzero"/>
 </g>
</svg>
